packages/core/src/svgs/proteo.svg

<svg width="24" height="24" viewBox="0 0 24 24" fill="none" xmlns="http://www.w3.org/2000/svg">
<g clip-path="url(#clip0_31_16495)">
<path d="M0 0H24V24H0V0Z" fill="url(#paint0_linear_31_16495)"/>
<path d="M10.2772 6.44551L6.85718 11.5712L12 20.1426L17.1429 11.5712L13.7229 6.44551L14.7343 11.5712H15.9386L12.4286 17.9998V11.5712H13.53L12.0172 3.87836L12 3.85693L11.9829 3.87836L10.47 11.5712H11.5715V17.9998L8.05718 11.5712H9.26575L10.2772 6.44551Z" fill="#D7A012"/>
<path d="M10.2772 6.44551L6.85718 11.5712L12 20.1426L17.1429 11.5712L13.7229 6.44551L14.7343 11.5712H15.9386L12.4286 17.9998V11.5712H13.53L12.0172 3.87836L12 3.85693L11.9829 3.87836L10.47 11.5712H11.5715V17.9998L8.05718 11.5712H9.26575L10.2772 6.44551Z" fill="url(#paint1_linear_31_16495)" fill-opacity="0.3"/>
</g>
<defs>
<linearGradient id="paint0_linear_31_16495" x1="4.46571" y1="4.16143" x2="29.2071" y2="32.58" gradientUnits="userSpaceOnUse">
<stop stop-color="#1A1E21"/>
<stop offset="1" stop-color="#06060A"/>
</linearGradient>
<linearGradient id="paint1_linear_31_16495" x1="12" y1="7.49979" x2="12" y2="18.2141" gradientUnits="userSpaceOnUse">
<stop stop-color="white"/>
<stop offset="0.68" stop-color="white" stop-opacity="0"/>
<stop offset="1" stop-color="white" stop-opacity="0.5"/>
</linearGradient>
<clipPath id="clip0_31_16495">
<rect width="24" height="24" fill="white"/>
</clipPath>
</defs>
</svg>

<svg xmlns="http://www.w3.org/2000/svg" width="24" height="24" fill="none" viewBox="0 0 24 24"><g clip-path="url(#a)"><path fill="url(#b)" d="M0 0h24v24H0z"/><path fill="#D7A012" d="m10.277 6.446-3.42 5.125L12 20.143l5.143-8.572-3.42-5.125 1.011 5.125h1.205L12.429 18V11.57h1.101l-1.513-7.693L12 3.857l-.017.021-1.513 7.693h1.101V18L8.058 11.57h1.209z"/><path fill="url(#c)" fill-opacity=".3" d="m10.277 6.446-3.42 5.125L12 20.143l5.143-8.572-3.42-5.125 1.011 5.125h1.205L12.429 18V11.57h1.101l-1.513-7.693L12 3.857l-.017.021-1.513 7.693h1.101V18L8.058 11.57h1.209z"/></g><defs><linearGradient id="b" x1="4.466" x2="29.207" y1="4.161" y2="32.58" gradientUnits="userSpaceOnUse"><stop stop-color="#1A1E21"/><stop offset="1" stop-color="#06060A"/></linearGradient><linearGradient id="c" x1="12" x2="12" y1="7.5" y2="18.214" gradientUnits="userSpaceOnUse"><stop stop-color="#fff"/><stop offset=".68" stop-color="#fff" stop-opacity="0"/><stop offset="1" stop-color="#fff" stop-opacity=".5"/></linearGradient><clipPath id="a"><path fill="#fff" d="M0 0h24v24H0z"/></clipPath></defs></svg>
